!!!COM: Anonymous
!!!OTL@@POL: Wszyscy mieszkańcy domu niebieskiego
!!!TXO: Polish
!!!ODT: 
!!!GTL: Hymnbook L 1642
!!!ARL: Biblioteka Diecezjalna w Sandomierzu 
!!!voices:	4
**kern	**text	**text	**kern	**text	**text	**kern	**text	**text	**kern	**text	**text
*staff4	*staff4	*staff4	*staff3	*staff3	*staff3	*staff2	*staff2	*staff2	*staff1	*staff1	*staff1
*I"Basso	*	*	*I"Canto III	*	*	*I"Canto II	*	*	*I"Canto I	*	*
=1-	=1-	=1-	=1-	=1-	=1-	=1-	=1-	=1-	=1-	=1-	=1-
*clefF4	*	*	*clefG2	*	*	*clefG2	*	*	*clefG2	*	*
*k[]	*	*	*k[]	*	*	*k[]	*	*	*k[]	*	*
*met(c|)	*	*	*met(c|)	*	*	*met(c|)	*	*	*met(c|)	*	*
*M2/2	*	*	*M2/2	*	*	*M2/2	*	*	*M2/2	*	*
1A	Wszy-	Lej-	1a	Wszy-	Lej-	1cc	Wszy-	Lej-	1ee	Wszy-	Lej-
=2	=2	=2	=2	=2	=2	=2	=2	=2	=2	=2	=2
2E\	-scy	-cie	2b\	-scy	-cie	2ee\	-scy	-cie	2gg\	-scy	-cie
2C/	miesz-	łzy	2a/	miesz-	łzy	2ee\	miesz-	łzy	2ee\	miesz-	łzy
=3	=3	=3	=3	=3	=3	=3	=3	=3	=3	=3	=3
4D\	-kań-	gorz-	1g	-kań-	gorz-	1dd	-kań-	gorz-	4ff\	-kań-	gorz-
4C/	.	.	.	.	.	.	.	.	4ee\	.	.
2BB/	.	.	.	.	.	.	.	.	2dd\	.	.
=4	=4	=4	=4	=4	=4	=4	=4	=4	=4	=4	=4
1AA	-cy	-kie	1a	-cy	-kie	1cc	-cy	-kie	1cc	-cy	-kie
=5	=5	=5	=5	=5	=5	=5	=5	=5	=5	=5	=5
1E	do-	płacz-	1g	do-	płacz-	1ee	do-	płacz-	1gg	do-	płacz-
=6	=6	=6	=6	=6	=6	=6	=6	=6	=6	=6	=6
1C	-mu	-cie	1cc	-mu	-cie	1ee	-mu	-cie	1ee	-mu	-cie
=7	=7	=7	=7	=7	=7	=7	=7	=7	=7	=7	=7
2D\	nie-	Kr&oacute;-	2a/	nie-	Kr&oacute;-	2dd\	nie-	Kr&oacute;-	2ff#\	nie-	Kr&oacute;-
2E\	-bie-	-la	2cc\	-bie-	-la	2ee\	-bie-	-la	2gg\	-bie-	-la
=8	=8	=8	=8	=8	=8	=8	=8	=8	=8	=8	=8
1F	-skie-	swe-	1a	-skie-	swe-	4ee\	-skie-	swe-	1aa	-skie-	swe-
.	.	.	.	.	.	8dd\L	.	.	.	.	.
.	.	.	.	.	.	8cc\J	.	.	.	.	.
.	.	.	.	.	.	2dd\	.	.	.	.	.
=9	=9	=9	=9	=9	=9	=9	=9	=9	=9	=9	=9
1E	-go	-go	1b	-go	-go	1ee	-go	-go	1gg#	-go	-go
=10:|!	=10:|!	=10:|!	=10:|!	=10:|!	=10:|!	=10:|!	=10:|!	=10:|!	=10:|!	=10:|!	=10:|!
1A	Dziś	.	1cc	Dziś	.	1ee	Dziś	.	1aa	Dziś	.
=11	=11	=11	=11	=11	=11	=11	=11	=11	=11	=11	=11
2D\	na	.	2a/	na	.	2dd\	na	.	2ff#\	na	.
2D\	po-	.	2a/	po-	.	2dd\	po-	.	2ff#\	po-	.
=12	=12	=12	=12	=12	=12	=12	=12	=12	=12	=12	=12
1G	-wie-	.	1b	-wie-	.	1dd	-wie-	.	1gg	-wie-	.
=13	=13	=13	=13	=13	=13	=13	=13	=13	=13	=13	=13
1C	-trzu	.	1cc	-trzu	.	1ee	-trzu	.	1gg	-trzu	.
=14	=14	=14	=14	=14	=14	=14	=14	=14	=14	=14	=14
2G\	wi-	.	2b\	wi-	.	2dd\	wi-	.	2gg\	wi-	.
2E\	-si	.	2cc\	-si	.	2ee\	-si	.	2gg\	-si	.
=15	=15	=15	=15	=15	=15	=15	=15	=15	=15	=15	=15
2F\	pod-	.	2a/	pod-	.	2cc\	pod-	.	2ff\	pod-	.
2D\	-nie-	.	4g/	-nie-	.	2dd\	-nie-	.	2ff\	-nie-	.
.	.	.	4f/	.	.	.	.	.	.	.	.
=16	=16	=16	=16	=16	=16	=16	=16	=16	=16	=16	=16
1E	-sio-	.	1g	-sio-	.	1b	-sio-	.	2.ee\	-sio-	.
.	.	.	.	.	.	.	.	.	4dd\	.	.
=17	=17	=17	=17	=17	=17	=17	=17	=17	=17	=17	=17
1AA	-ny	.	1a	-ny	.	1cc	-ny	.	1cc	-ny	.
=18	=18	=18	=18	=18	=18	=18	=18	=18	=18	=18	=18
1C	Jam	.	1g	Jam	.	1cc	Jam	.	1ee	Jam	.
=19	=19	=19	=19	=19	=19	=19	=19	=19	=19	=19	=19
2D\	B&oacute;g	.	2cc\	B&oacute;g	.	2dd\	B&oacute;g	.	4ff\	B&oacute;g	.
.	.	.	.	.	.	.	.	.	4gg\	.	.
2AA/	wcie-	.	2a/	wcie-	.	2ee\	wcie-	.	2aa\	wcie-	.
=20	=20	=20	=20	=20	=20	=20	=20	=20	=20	=20	=20
1E	-lo-	.	1b	-lo-	.	1ee	-lo-	.	1gg#i	-lo-	.
=21	=21	=21	=21	=21	=21	=21	=21	=21	=21	=21	=21
1AA	-ny.	.	1cc#i	-ny.	.	1cc#i	-ny.	.	1aa	-ny.	.
==	==	==	==	==	==	==	==	==	==	==	==
*-	*-	*-	*-	*-	*-	*-	*-	*-	*-	*-	*-
!!!GTL: Hymnbook L 1642
!!!EFL: 4/39
!!!YEM: Creative Commons CC/BY/NC/SA 4.0
!!!ENC: Marcin Konik
!!!END: 2015-02-13 
!!!EED: Marcin Konik
!!!EEV: 
!!!ONB: Translated from MusicXML and edited by Marcin Konik
!!!CharacterEncoding: utf-8
!!!RDF**kern: i=editorial accidental
!!muse2ps: z14jc180F
!!title: @{OTL}, @{GTL}: @{pag}, ed. @{ENC}
